X:1     %Music
T:William Taylor
B:One Hundred English Folksongs, Ed C Sharp, ISBN 0-486-23192-5
Z:Cecil Sharp
F:http://www.folkinfo.org/songs
M:2/2     %Meter
L:1/8     %
K:D
G2 F2 GGAB |=cc A2 F2 D2 |G2 F2 G2 AA |B2 d2 A4 |
w:Will-iam Tay-lor was a brisk_ young sail-or, He who court-ed a la-dy fair; 
d3 d d2 B2 |A2 G2 F2 D2 |G2 B2 =c2 A2 |G2 E2 D4 |]
w:Bells were ring-ing, sail-ors sing-ing, As to church they did re-pair